Papirus-Light/22x22/panel/viber-notification.svg

<svg xmlns="http://www.w3.org/2000/svg" width="22" height="22" version="1.1">
 <defs>
  <style id="current-color-scheme" type="text/css">
   .ColorScheme-Text { color:#444444; } .ColorScheme-Highlight { color:#4285f4; }
  </style>
 </defs>
 <g>
  <path style="fill:currentColor" class="ColorScheme-Text" d="m 5.8899785,3.2694293 c -0.1198948,-0.0109 -0.2362897,-0.0103 -0.322186,0.0078 l -0.002,0 c -0.251289,0.0519 -0.5662753,0.234695 -1.2479455,0.730486 -0.4095821,0.299795 -0.9714575,0.837785 -1.1035518,1.054681 -0.3064866,0.51399 -0.2891873,0.950582 0.083996,1.955064 0.639972,1.722568 1.5751311,3.3823377 2.8045775,4.9843087 2.3530972,3.064943 5.3172683,5.293902 9.0291053,6.788874 0.47298,0.190997 0.626973,0.222996 0.997957,0.204997 0.448981,-0.021 0.789965,-0.156997 1.270944,-0.513991 0.531977,-0.393993 1.292944,-1.318975 1.488935,-1.811966 0.184993,-0.467992 0.135994,-0.891984 -0.138993,-1.222978 -0.155994,-0.182996 -1.308943,-1.102979 -1.84792,-1.471973 -0.408982,-0.278995 -1.042954,-0.662987 -1.333942,-0.810985 -0.382983,-0.190996 -0.764967,-0.223996 -1.13795,-0.1 -0.293987,0.099 -0.389983,0.182997 -0.818964,0.708987 -0.221991,0.268995 -0.426982,0.512991 -0.45298,0.53599 -0.029,0.023 -0.121995,0.074 -0.208992,0.112998 -0.345984,0.157997 -0.819963,0.063 -1.59393,-0.314994 C 10.753166,13.815733 10.219189,13.44674 9.6144147,12.90375 9.0991377,12.444759 8.5793607,11.84377 8.2883731,11.376778 7.9130895,10.774789 7.627002,9.9941033 7.6243021,9.5623113 c 0,-0.185897 0.076897,-0.449892 0.1718924,-0.58399 0.036998,-0.0539 0.2720882,-0.258295 0.5233772,-0.456991 0.626472,-0.493191 0.766667,-0.646988 0.851563,-0.941383 0.0822,-0.273495 -0.0062,-0.644088 -0.267589,-1.142579 -0.4573795,-0.873084 -1.8548185,-2.619851 -2.3572965,-2.945245 -0.082196,-0.0519 -0.2260901,-0.123298 -0.3183861,-0.154298 -0.095296,-0.0337 -0.2179905,-0.0574 -0.3378852,-0.0684 z"/>
  <path style="fill:currentColor" class="ColorScheme-Highlight" d="m 12.339097,6.8240633 c -0.051,0.0058 -0.086,0.0187 -0.136994,0.043 -0.266989,0.134098 -0.340985,0.498291 -0.147994,0.722587 0.104996,0.121298 0.203991,0.156997 0.528977,0.195396 0.69297,0.0828 1.100952,0.335794 1.333942,0.824185 0.107996,0.229696 0.172992,0.478291 0.206991,0.831985 0.029,0.266095 0.069,0.364093 0.194991,0.456991 0.174993,0.1315987 0.461981,0.1255987 0.617974,-0.0136 0.165992,-0.149597 0.195991,-0.329594 0.123995,-0.789086 -0.104997,-0.704687 -0.344986,-1.196678 -0.784967,-1.60157 -0.340985,-0.312494 -0.740967,-0.506691 -1.260945,-0.615189 -0.107995,-0.0228 -0.309986,-0.0452 -0.447979,-0.0527 l -0.002,0 c -0.108996,-0.0063 -0.175993,-0.0077 -0.225991,-0.002 z m -0.560976,-1.931564 c -0.148993,0.0229 -0.23599,0.0831 -0.303986,0.187496 l -0.002,0 c -0.126995,0.188597 -0.111995,0.416193 0.039,0.58399 0.097,0.111098 0.23999,0.162697 0.499979,0.183596 0.716968,0.0565 1.501934,0.285795 2.03491,0.595689 0.617974,0.358994 1.125952,0.874784 1.473936,1.499973 0.306986,0.547689 0.484979,1.252876 0.484979,1.921764 0,0.4337927 0.06,0.5927897 0.263988,0.6937877 0.120995,0.062 0.341985,0.067 0.444981,0.015 0.095,-0.049 0.205991,-0.165997 0.23999,-0.253995 0.037,-0.093 0.036,-0.6533887 0.002,-0.9605837 -0.098,-0.839384 -0.381984,-1.62277 -0.839964,-2.289057 -0.813965,-1.182979 -2.05691,-1.910165 -3.66184,-2.140561 -0.315987,-0.0465 -0.526977,-0.06 -0.675971,-0.0371 z m -0.245988,-1.888665 c -0.430981,-0.0128 -0.517978,0.0021 -0.641973,0.113298 -0.203991,0.177796 -0.193991,0.560289 0.017,0.722586 0.113996,0.0849 0.200991,0.104598 0.70297,0.132898 1.485935,0.0848 2.621885,0.477391 3.718838,1.283176 1.315942,0.963282 2.140906,2.305358 2.452892,3.986227 0.08,0.428492 0.119995,0.7867857 0.146994,1.3417757 0.016,0.361993 0.028,0.441992 0.076,0.53499 0.150993,0.281995 0.591974,0.322994 0.792966,0.072 0.105996,-0.128998 0.117994,-0.228996 0.099,-0.680988 -0.05,-1.3246757 -0.343986,-2.5286537 -0.858963,-3.5411347 -0.369984,-0.725587 -0.716968,-1.193478 -1.345942,-1.810567 -0.67097,-0.653488 -1.178948,-1.011281 -1.971913,-1.390574 -0.806964,-0.384693 -1.541933,-0.599789 -2.450893,-0.710987 -0.179992,-0.0208 -0.511978,-0.0453 -0.736967,-0.0527 z"/>
 </g>
</svg>

<svg xmlns="http://www.w3.org/2000/svg" width="22" height="22" version="1.1">
 <defs>
  <style id="current-color-scheme" type="text/css">
   .ColorScheme-Text { color:#444444; } .ColorScheme-Highlight { color:#4285f4; }
  </style>
 </defs>
 <path style="fill:currentColor" class="ColorScheme-Text" d="M 5.89,3.269 C 5.7701,3.2581 5.5658,3.2768 5.5658,3.2768 5.3145,3.3287 4.9995,3.5115 4.3178,4.0073 3.9083,4.3071 3.3464,4.8451 3.2143,5.062 2.9078,5.576 2.9251,6.0126 3.2983,7.0171 3.9383,8.7396 4.8734,10.4 6.1029,12.002 8.456,15.067 11.42,17.296 15.132,18.791 15.605,18.982 15.759,19.014 16.13,18.996 16.579,18.975 16.92,18.839 17.401,18.482 17.933,18.088 18.694,17.163 18.89,16.67 19.075,16.202 19.026,15.778 18.751,15.447 18.595,15.264 17.442,14.344 16.903,13.975 16.494,13.696 15.86,13.312 15.569,13.164 15.186,12.973 14.804,12.94 14.431,13.064 14.137,13.163 14.041,13.247 13.612,13.773 13.39,14.042 12.95,14.422 12.95,14.422 12.604,14.58 12.13,14.485 11.356,14.107 10.753,13.816 10.219,13.447 9.614,12.904 9.099,12.445 8.5794,11.844 8.2884,11.377 7.9131,10.775 7.627,9.9936 7.6243,9.5616 7.6243,9.3756 7.7962,8.9779 7.7962,8.9779 L 8.3196,8.5209 C 8.946,8.0277 9.086,7.8739 9.171,7.5795 9.253,7.3061 9.165,6.9355 8.9035,6.437 8.4462,5.5639 7.0487,3.8171 6.5462,3.4917 6.4641,3.4398 6.3202,3.3684 6.2279,3.3374 6.1326,3.3037 6.0099,3.28 5.89,3.269 Z"/>
 <path style="fill:currentColor" class="ColorScheme-Highlight" d="M 12.339,6.8237 C 12.288,6.8295 12.253,6.8424 12.202,6.8667 11.935,7.0008 11.861,7.365 12.054,7.5893 12.159,7.7105 12.258,7.7462 12.583,7.7846 13.276,7.8674 13.684,8.1204 13.917,8.6088 14.025,8.8385 14.09,9.0876 14.124,9.4406 14.153,9.7066 14.193,9.8046 14.319,9.8976 14.494,10.03 14.781,10.024 14.937,9.8846 15.103,9.7346 15.133,9.5546 15.061,9.0956 14.956,8.3904 14.716,7.8984 14.276,7.4936 13.935,7.1811 13.535,6.9869 13.015,6.8784 12.907,6.8556 12.705,6.8332 12.567,6.8257 12.567,6.8257 12.389,6.818 12.339,6.8237 Z M 11.778,4.8921 C 11.629,4.915 11.542,4.9752 11.474,5.0796 H 11.472 C 11.345,5.2682 11.36,5.4958 11.511,5.6636 11.608,5.7747 11.751,5.8263 12.011,5.8472 12.728,5.9037 13.513,6.133 14.046,6.4429 14.664,6.8019 15.172,7.3177 15.52,7.9428 15.827,8.4905 16.005,9.1956 16.005,9.8646 16.005,10.299 16.065,10.458 16.269,10.559 16.39,10.621 16.611,10.626 16.714,10.574 16.809,10.525 16.92,10.408 16.954,10.32 16.991,10.227 16.99,9.6656 16.956,9.3586 16.858,8.5194 16.574,7.736 16.116,7.0698 15.302,5.8868 14.059,5.1596 12.454,4.9292 12.138,4.8827 11.927,4.8692 11.778,4.8921 Z M 11.532,3.0034 C 11.101,2.9906 11.014,3.0055 10.89,3.1167 10.686,3.2945 10.696,3.677 10.907,3.8393 11.021,3.9242 11.108,3.9439 11.61,3.9722 13.096,4.057 14.232,4.4496 15.329,5.2554 16.645,6.2187 17.47,7.5608 17.782,9.2416 17.862,9.6706 17.902,10.029 17.929,10.584 17.945,10.946 17.957,11.026 18.005,11.119 18.156,11.401 18.597,11.442 18.798,11.191 18.904,11.062 18.916,10.962 18.897,10.51 18.847,9.1846 18.553,7.9807 18.038,6.9683 17.668,6.2427 17.321,5.7748 16.692,5.1577 16.021,4.5042 15.513,4.1464 14.72,3.7671 13.913,3.3824 13.178,3.1673 12.269,3.0561 12.089,3.0353 11.757,3.0108 11.532,3.0034 Z"/>
</svg>
